resources/svg/paragraph-align-center.svg

<svg xmlns="http://www.w3.org/2000/svg" fill="none" viewBox="0 0 14 14"><path fill="currentColor" fill-rule="evenodd" d="M1 0.25C0.585786 0.25 0.25 0.585786 0.25 1C0.25 1.41421 0.585786 1.75 1 1.75H13C13.4142 1.75 13.75 1.41421 13.75 1C13.75 0.585786 13.4142 0.25 13 0.25H1ZM2.38452 4.25C1.97031 4.25 1.63452 4.58579 1.63452 5C1.63452 5.41421 1.97031 5.75 2.38452 5.75H11.6153C12.0295 5.75 12.3653 5.41421 12.3653 5C12.3653 4.58579 12.0295 4.25 11.6153 4.25H2.38452ZM0.25 13C0.25 12.5858 0.585786 12.25 1 12.25H13C13.4142 12.25 13.75 12.5858 13.75 13C13.75 13.4142 13.4142 13.75 13 13.75H1C0.585786 13.75 0.25 13.4142 0.25 13ZM2.38452 8.25C1.97031 8.25 1.63452 8.58579 1.63452 9C1.63452 9.41421 1.97031 9.75 2.38452 9.75H11.6153C12.0295 9.75 12.3653 9.41421 12.3653 9C12.3653 8.58579 12.0295 8.25 11.6153 8.25H2.38452Z" clip-rule="evenodd"></path></svg>

<svg xmlns="http://www.w3.org/2000/svg" fill="none" viewBox="0 0 14 14"><path fill="currentColor" fill-rule="evenodd" d="M1 .25a.75.75 0 1 0 0 1.5h12a.75.75 0 0 0 0-1.5H1Zm1.385 4a.75.75 0 0 0 0 1.5h9.23a.75.75 0 0 0 0-1.5h-9.23ZM.25 13a.75.75 0 0 1 .75-.75h12a.75.75 0 0 1 0 1.5H1A.75.75 0 0 1 .25 13Zm2.135-4.75a.75.75 0 0 0 0 1.5h9.23a.75.75 0 0 0 0-1.5h-9.23Z" clip-rule="evenodd"/></svg>
